src/assets/clasped_hands.svg

<svg width="180" height="133" viewBox="0 0 180 133" fill="none" xmlns="http://www.w3.org/2000/svg">
<circle cx="96.5" cy="66.5" r="66.5" fill="#922630"/>
<path d="M98.2577 43.7015C98.2577 43.7015 51.4865 84.272 50.3633 89.2781C50.3633 89.2781 52.1129 90.3222 53.8697 92.9611C55.9073 96.0077 58.6361 97.4165 60.1697 96.8229C62.3801 95.9648 62.3945 94.4057 62.3945 94.4057L92.5625 109.746C92.5625 109.746 104.169 107.672 129.794 87.0611L136.9 79.266L98.2505 43.6943L98.2577 43.7015Z" fill="#CDCFD5"/>
<path d="M50.478 44.4167C50.478 44.4167 55.0644 48.6432 61.5228 46.0114L81.8484 37.587C81.8484 37.587 88.9044 33.6679 94.9596 39.0459C94.9596 39.0459 87.0828 52.834 99.186 56.8818C99.186 56.8818 110.605 63.9188 116.3 70.391C119.166 73.6449 125.444 79.3447 128.382 82.4842C129.167 83.3281 130.83 84.6439 131.608 85.8597C132.68 87.5403 134.682 91.1661 130.384 93.898C130.384 93.898 127.41 96.6013 122.615 92.7609C118.165 89.1995 110.62 81.2756 105.925 77.4424C105.673 77.235 104.442 76.8202 105.983 78.7511C107.891 81.1326 117.1 89.8646 117.1 89.8646C117.1 89.8646 120.563 92.9612 121.297 94.4058C121.945 95.6716 122.838 98.3892 120.21 100.885C120.21 100.885 116.444 104.704 111.34 100.656L99.7548 90.2579C99.7548 90.2579 97.2708 88.184 99.1212 90.9873C99.1212 90.9873 110.872 101.6 111.203 103.031C112.153 107.114 108.719 111.784 102.743 108.573L89.1924 98.8469C89.1924 98.8469 87.8892 98.4893 88.8396 99.6764C88.8396 99.6764 101.461 108.294 102.304 109.167C103.398 110.318 99.834 114.63 93.9156 111.977C85.4772 108.201 68.3412 101.157 60.1692 96.823C57.2964 95.2997 51.4788 91.4665 49.2756 89.7287C49.2756 89.7287 40.4484 82.5343 27.3516 80.6391L41.9028 41.7634L50.4708 44.4095L50.478 44.4167Z" fill="#E4E4E4"/>
<path d="M59.5361 98.8113C59.5361 98.8113 62.7689 95.5216 64.6553 94.4203C68.4713 92.189 74.4185 95.5574 74.3105 98.8685C74.3105 98.8685 75.2537 102.251 69.0401 106.292C67.8953 107.036 64.3313 108.709 60.0113 104.168C60.0113 104.168 57.4697 101.178 59.5361 98.8113Z" fill="#414141"/>
<path d="M70.5805 107.421C70.7893 104.997 74.7565 100.999 76.4485 99.6188C78.4357 97.9954 85.5781 97.1015 85.4557 104.518C85.4557 104.518 84.3757 109.588 80.1637 112.027C78.1621 113.185 70.1485 112.556 70.5877 107.414L70.5805 107.421Z" fill="#414141"/>
<path d="M86.5486 105.719C87.9598 104.01 93.907 103.853 93.3598 109.209C93.151 111.24 91.6678 114.437 88.4782 115.381C86.1598 116.068 80.5582 113.772 81.955 111.569C82.9198 110.053 83.3518 109.588 86.5486 105.719Z" fill="#414141"/>
<path d="M58.3994 99.3401C58.3994 99.3401 61.6322 96.0504 63.5186 94.9491C67.3346 92.7178 73.2818 96.0862 73.1738 99.3973C73.1738 99.3973 74.117 102.78 67.9034 106.821C66.7514 107.564 63.1946 109.238 58.8746 104.697C58.8746 104.697 56.333 101.707 58.3994 99.3401Z" fill="#F3FBF9"/>
<path d="M68.0703 67.6943C68.0703 67.6943 75.2991 75.0246 86.0127 57.2603C86.0127 57.2603 90.2463 59.3485 97.6191 56.2519L99.3327 54.2209C99.3327 54.2209 85.1775 53.9491 85.2063 54.2209C85.2351 54.4998 68.0703 67.6943 68.0703 67.6943Z" fill="#414141"/>
<path d="M69.4438 107.958C69.6526 105.533 73.6198 101.536 75.3118 100.155C77.299 98.5321 84.4414 97.6381 84.319 105.054C84.319 105.054 83.239 110.125 79.027 112.563C77.0254 113.722 69.0118 113.093 69.451 107.951L69.4438 107.958Z" fill="#F3FBF9"/>
<path d="M85.408 106.249C86.8192 104.54 92.7664 104.382 92.2192 109.739C92.0104 111.77 90.5272 114.966 87.3376 115.91C85.0192 116.597 79.4176 114.301 80.8144 112.099C81.7792 110.583 82.2112 110.118 85.408 106.249Z" fill="#F3FBF9"/>
<path d="M49.8241 93.3111C50.4721 92.267 51.4441 91.3087 53.2873 90.1859C54.4033 89.5065 57.2833 89.5494 58.8601 90.8224C59.9905 91.7378 62.1865 93.826 61.4377 95.3493C60.0265 98.2385 57.7513 102.107 54.1153 100.448C54.1153 100.448 46.9297 97.9668 49.8169 93.3183L49.8241 93.3111Z" fill="#414141"/>
<path d="M48.6952 93.2828C49.3432 92.2387 50.3152 91.2804 52.1584 90.1576C53.2744 89.4782 56.1544 89.5211 57.7312 90.7941C58.8616 91.7095 61.0576 93.7977 60.3088 95.321C58.8904 98.2102 56.6224 102.079 52.9864 100.42C52.9864 100.42 45.8008 97.9384 48.688 93.29L48.6952 93.2828Z" fill="#F3FBF9"/>
<path d="M53.7121 40.2831L39.6433 89.2209L15.4297 81.3614L32.8897 31.9087L53.7121 40.2831Z" fill="#4D7E9C"/>
<path d="M51.6377 91.9383C51.6377 91.9383 49.9889 95.2065 51.9617 96.9157C51.9617 96.9157 54.3161 100.57 58.4417 95.5426C59.1257 94.7059 58.0529 92.9395 55.8641 92.0527C55.8641 92.0527 53.8193 90.9657 51.6377 91.9454V91.9383Z" fill="white"/>
<path d="M61.8407 99.4693C61.8407 99.4693 63.6551 96.5086 64.9151 96.1725C66.2111 95.8292 69.9335 96.2154 71.0351 100.034C71.2223 100.692 70.0919 101.872 69.5663 102.502C68.6015 103.674 66.2831 105.319 64.0367 103.71C64.0367 103.71 61.0919 102.215 61.8407 99.4693Z" fill="white"/>
<path d="M74.1329 103.738C74.5865 102.866 76.0985 101.371 77.2937 101.4C79.2665 101.45 83.5793 103.452 82.0313 106.163C82.0313 106.163 80.6993 108.458 78.4385 108.752C78.4385 108.752 74.4713 109.631 73.5137 105.941C73.3697 105.39 73.8737 104.246 74.1329 103.738Z" fill="white"/>
<path d="M83.7427 110.518C84.1243 111.977 86.3491 113.715 87.9835 112.577C88.6459 112.113 90.1003 110.475 90.2659 109.688C90.5467 108.358 88.2499 105.19 85.5787 107.536C84.9523 108.093 83.5267 109.71 83.7355 110.518H83.7427Z" fill="white"/>
<path d="M104.443 38.9165C104.443 38.9165 96.6456 35.3551 89.6472 40.7688L78.4296 45.7963C78.4296 45.7963 73.8 46.7045 71.676 52.4329L65.7072 61.6083C65.7072 61.6083 61.0344 67.8301 72.2952 68.3092C72.2952 68.3092 79.0128 66.4284 85.3704 56.8954L85.5 55.5939C85.5 55.5939 86.0184 57.2888 89.7768 57.1028C89.7768 57.1028 93.744 56.2733 99.2232 55.2005C99.2232 55.2005 99.9432 56.3376 104.645 59.7274C104.645 59.7274 116.179 67.6942 118.613 71.4702L131.983 84.5074C131.983 84.5074 134.395 83.8852 141.228 75.7754L154.548 72.8719L145.778 34.9546C145.778 34.9546 124.409 40.3254 118.354 40.168L104.436 38.9165H104.443Z" fill="#F3FBF9"/>
<path d="M141.02 34.7188L153.404 78.1214L173.067 73.244L159.956 29.2407L141.02 34.7188Z" fill="#4D7E9C"/>
<path d="M68.6722 57.0461C68.6722 57.0461 73.3594 55.9233 74.2882 59.1701C74.2882 59.1701 72.229 64.4837 70.5442 65.5135C69.241 66.3073 65.2666 66.2 64.7482 64.0975C64.7482 64.0975 64.525 61.9663 68.665 57.0532L68.6722 57.0461Z" fill="white"/>
<path d="M108.938 62.8315C108.938 62.8315 116.829 67.2726 126.088 61.6372C126.088 61.6372 119.327 68.6457 111.882 65.0985L108.938 62.8315Z" fill="#414141"/>
</svg>

<svg width="180" height="133" fill="none" xmlns="http://www.w3.org/2000/svg"><circle cx="96.5" cy="66.5" r="66.5" fill="#922630"/><path d="M98.258 43.702s-46.771 40.57-47.895 45.576c0 0 1.75 1.044 3.507 3.683 2.037 3.047 4.766 4.456 6.3 3.862 2.21-.858 2.224-2.417 2.224-2.417l30.169 15.34s11.606-2.074 37.231-22.685l7.106-7.795-38.65-35.572.008.008Z" fill="#CDCFD5"/><path d="M50.478 44.417s4.586 4.226 11.045 1.594l20.325-8.424s7.056-3.92 13.112 1.459c0 0-7.877 13.788 4.226 17.836 0 0 11.419 7.037 17.114 13.509 2.866 3.254 9.144 8.954 12.082 12.093.785.844 2.448 2.16 3.226 3.376 1.072 1.68 3.074 5.306-1.224 8.038 0 0-2.974 2.703-7.769-1.137-4.45-3.561-11.995-11.485-16.69-15.319-.252-.207-1.483-.622.058 1.31 1.908 2.38 11.117 11.113 11.117 11.113s3.463 3.096 4.197 4.54c.648 1.267 1.541 3.984-1.087 6.48 0 0-3.766 3.819-8.87-.229L99.755 90.258s-2.484-2.074-.634.73c0 0 11.751 10.612 12.082 12.043.95 4.083-2.484 8.753-8.46 5.542l-13.55-9.726s-1.304-.358-.353.83c0 0 12.621 8.617 13.464 9.49 1.094 1.151-2.47 5.463-8.388 2.81-8.439-3.776-25.575-10.82-33.747-15.154-2.873-1.523-8.69-5.356-10.893-7.094 0 0-8.828-7.195-21.924-9.09l14.55-38.876 8.569 2.647.007.007Z" fill="#E4E4E4"/><path d="M59.536 98.811s3.233-3.29 5.12-4.39c3.815-2.232 9.762 1.136 9.654 4.447 0 0 .944 3.383-5.27 7.424-1.145.744-4.709 2.417-9.029-2.124 0 0-2.541-2.99-.475-5.357Z" fill="#414141"/><path d="M70.58 107.421c.21-2.424 4.177-6.422 5.868-7.802 1.988-1.624 9.13-2.517 9.008 4.899 0 0-1.08 5.07-5.292 7.509-2.002 1.158-10.016.529-9.576-4.613l-.007.007ZM86.549 105.719c1.41-1.709 7.358-1.866 6.81 3.49-.208 2.031-1.691 5.228-4.88 6.172-2.32.687-7.92-1.609-6.524-3.812.965-1.516 1.397-1.981 4.594-5.85Z" fill="#414141"/><path d="M58.4 99.34s3.232-3.29 5.119-4.39c3.816-2.232 9.763 1.136 9.655 4.447 0 0 .943 3.383-5.27 7.424-1.153.743-4.71 2.417-9.03-2.124 0 0-2.541-2.99-.475-5.357Z" fill="#F3FBF9"/><path d="M68.07 67.694s7.23 7.33 17.943-10.434c0 0 4.233 2.089 11.606-1.008l1.714-2.031s-14.156-.272-14.127 0c.03.279-17.136 13.473-17.136 13.473Z" fill="#414141"/><path d="M69.444 107.958c.209-2.425 4.176-6.422 5.868-7.803 1.987-1.623 9.13-2.517 9.007 4.899 0 0-1.08 5.071-5.292 7.509-2.002 1.159-10.015.53-9.576-4.612l-.007.007ZM85.408 106.249c1.411-1.709 7.358-1.867 6.811 3.49-.209 2.031-1.692 5.227-4.881 6.171-2.319.687-7.92-1.609-6.524-3.811.965-1.516 1.397-1.981 4.594-5.85Z" fill="#F3FBF9"/><path d="M49.824 93.311c.648-1.044 1.62-2.002 3.463-3.125 1.116-.68 3.996-.637 5.573.636 1.13.916 3.327 3.004 2.578 4.527-1.412 2.89-3.687 6.758-7.323 5.099 0 0-7.185-2.481-4.298-7.13l.007-.007Z" fill="#414141"/><path d="M48.695 93.283c.648-1.044 1.62-2.003 3.463-3.125 1.116-.68 3.996-.637 5.573.636 1.13.916 3.327 3.004 2.578 4.527-1.419 2.89-3.687 6.758-7.323 5.099 0 0-7.185-2.482-4.298-7.13l.007-.007Z" fill="#F3FBF9"/><path d="M53.712 40.283 39.643 89.221 15.43 81.36 32.89 31.91l20.822 8.374Z" fill="#4D7E9C"/><path d="M51.638 91.938s-1.65 3.269.324 4.978c0 0 2.354 3.654 6.48-1.373.684-.837-.39-2.604-2.578-3.49 0 0-2.045-1.087-4.226-.108v-.007ZM61.84 99.47s1.815-2.961 3.075-3.297c1.296-.344 5.018.042 6.12 3.861.187.658-.943 1.838-1.469 2.468-.965 1.172-3.283 2.817-5.53 1.208 0 0-2.944-1.495-2.195-4.24ZM74.133 103.738c.454-.872 1.966-2.367 3.16-2.338 1.973.05 6.286 2.052 4.738 4.763 0 0-1.332 2.295-3.593 2.589 0 0-3.967.879-4.924-2.811-.144-.551.36-1.695.619-2.203ZM83.743 110.518c.381 1.459 2.606 3.197 4.24 2.059.663-.464 2.117-2.102 2.283-2.889.28-1.33-2.016-4.498-4.687-2.152-.627.557-2.052 2.174-1.843 2.982h.007Z" fill="#fff"/><path d="M104.443 38.916s-7.797-3.56-14.796 1.853L78.43 45.796s-4.63.909-6.754 6.637l-5.969 9.175s-4.673 6.222 6.588 6.701c0 0 6.718-1.88 13.075-11.414l.13-1.301s.518 1.695 4.277 1.509c0 0 3.967-.83 9.446-1.903 0 0 .72 1.138 5.422 4.527 0 0 11.534 7.967 13.968 11.743l13.37 13.037s2.412-.622 9.245-8.732l13.32-2.903-8.77-37.917s-21.369 5.37-27.424 5.213l-13.918-1.252h.007Z" fill="#F3FBF9"/><path d="m141.02 34.719 12.384 43.402 19.663-4.877-13.111-44.003-18.936 5.478Z" fill="#4D7E9C"/><path d="M68.672 57.046s4.687-1.123 5.616 2.124c0 0-2.059 5.314-3.744 6.343-1.303.794-5.277.687-5.796-1.416 0 0-.223-2.13 3.917-7.044l.007-.007Z" fill="#fff"/><path d="M108.938 62.831s7.891 4.442 17.15-1.194c0 0-6.761 7.009-14.206 3.462l-2.944-2.268Z" fill="#414141"/></svg>
